Sources/FrostedUI/Resources/Icons.xcassets/discord32.imageset/discord-32.svg

<svg width="32" height="32" viewBox="0 0 32 32" fill="none" xmlns="http://www.w3.org/2000/svg" data-fui-icon="true">
  <path
    d="M12.5187 4.46094C12.7239 4.82997 12.9148 5.207 13.0929 5.58984C15.0205 5.34637 16.9709 5.34648 18.8986 5.58984C19.0767 5.20683 19.2683 4.83015 19.4738 4.46094L19.7325 3.99707L20.255 4.08594C22.1404 4.4066 23.9823 4.94381 25.7443 5.68555L26.4952 6.01562L26.6837 6.10254L26.8009 6.27539C30.2114 11.2883 31.9152 16.9648 31.2882 23.5029L31.257 23.834L30.9894 24.0332C28.6768 25.752 26.0862 27.0579 23.3322 27.8926L22.8273 28.0449L22.5128 27.6211C21.8861 26.7757 21.332 25.878 20.8566 24.9385L20.7423 24.7139C19.2006 25.1325 17.6065 25.3486 16.0001 25.3486C14.3915 25.3486 12.7948 25.1326 11.2511 24.7129L11.1388 24.9365C10.6629 25.8764 10.1085 26.7738 9.48254 27.6201L9.16809 28.0459L8.66125 27.8916C5.91017 27.0536 3.32258 25.7473 1.01086 24.0303L0.74231 23.832L0.71106 23.499C0.17689 17.863 1.25153 12.1331 5.18469 6.2832L5.30188 6.1084L5.49329 6.02051C7.48177 5.1061 9.58076 4.45546 11.7365 4.08594L12.2599 3.99609L12.5187 4.46094ZM20.5323 5.66309C20.3575 6.00371 20.1942 6.35051 20.0441 6.70312L19.8165 7.23828L19.2423 7.15039C17.0907 6.82448 14.9017 6.82446 12.7501 7.15039L12.1759 7.23828L11.9484 6.70312C11.7983 6.35075 11.6339 6.00461 11.4591 5.66406C9.68701 6.0098 7.95955 6.55719 6.31067 7.29785C2.75868 12.6612 1.74887 17.8727 2.17493 23.0225C4.13418 24.4352 6.29603 25.5388 8.58606 26.2939C8.88152 25.8675 9.15722 25.4279 9.41321 24.9766C8.7851 24.7027 8.17309 24.3912 7.58313 24.041L6.60461 23.4609L7.52454 22.79C7.7253 22.6437 7.92379 22.4919 8.12219 22.3389L8.48547 22.0576L8.90051 22.2539C11.1216 23.3039 13.546 23.8486 16.0001 23.8486C18.4541 23.8486 20.8778 23.3038 23.0988 22.2539L23.5284 22.0518L23.8947 22.3525C24.0837 22.5075 24.2712 22.651 24.4552 22.7764L25.4288 23.4395L24.4161 24.041C23.8242 24.3923 23.2104 24.7048 22.5802 24.9795C22.836 25.4304 23.1128 25.8692 23.4083 26.2949C25.7 25.5427 27.8628 24.4398 29.8224 23.0264C30.3191 17.0799 28.7712 11.9117 25.6788 7.29492C24.0309 6.55399 22.3042 6.00651 20.5323 5.66309ZM11.1222 14.1631C12.6057 14.1631 13.7921 15.4947 13.7667 17.1182C13.7411 18.7416 12.6013 20.0615 11.1271 20.0615C9.68066 20.0614 8.48561 18.7416 8.48547 17.1182C8.48547 15.4949 9.63891 14.1634 11.1222 14.1631ZM20.8732 14.1631C22.3588 14.1634 23.5354 15.4949 23.5099 17.1182C23.4844 18.7415 22.3471 20.0613 20.8732 20.0615C19.4243 20.0615 18.2337 18.7416 18.2335 17.1182C18.2335 15.4947 19.3873 14.1631 20.8732 14.1631Z"
    fill="currentColor"
  />
</svg>

<svg xmlns="http://www.w3.org/2000/svg" width="32" height="32" fill="none" data-fui-icon="true" viewBox="0 0 32 32"><path fill="currentColor" d="M12.519 4.46q.307.555.574 1.13a23.2 23.2 0 0 1 5.806 0q.267-.575.575-1.13l.259-.463.522.089c1.885.32 3.727.858 5.49 1.6l.75.33.189.087.117.172c3.41 5.013 5.114 10.69 4.487 17.228l-.031.331-.268.2a25 25 0 0 1-7.657 3.859l-.505.152-.314-.424a18.6 18.6 0 0 1-1.656-2.682l-.115-.225a18 18 0 0 1-4.742.635c-1.608 0-3.205-.216-4.749-.636l-.112.223c-.476.94-1.03 1.838-1.656 2.684l-.315.426-.507-.154a25.1 25.1 0 0 1-7.65-3.862l-.269-.198-.03-.333c-.535-5.636.54-11.366 4.473-17.216l.117-.175.191-.087a25 25 0 0 1 6.243-1.935l.524-.09zm8.013 1.203q-.262.511-.488 1.04l-.227.535-.575-.088a21.7 21.7 0 0 0-6.492 0l-.574.088-.228-.535q-.226-.528-.489-1.039c-1.772.346-3.5.893-5.148 1.634-3.552 5.363-4.562 10.575-4.136 15.725a23.6 23.6 0 0 0 6.411 3.27q.443-.639.827-1.316a17 17 0 0 1-1.83-.936l-.978-.58.92-.671q.3-.22.597-.451l.363-.281.416.196a16.61 16.61 0 0 0 14.198 0l.43-.202.366.3q.284.235.56.424l.974.663-1.013.602q-.89.527-1.836.939.385.676.828 1.315a23.5 23.5 0 0 0 6.414-3.269c.497-5.946-1.05-11.114-4.143-15.731a23.4 23.4 0 0 0-5.147-1.632m-9.41 8.5c1.484 0 2.67 1.332 2.645 2.955-.026 1.624-1.166 2.944-2.64 2.944-1.446 0-2.641-1.32-2.642-2.944s1.154-2.955 2.637-2.955m9.751 0c1.486 0 2.662 1.332 2.637 2.955-.026 1.624-1.163 2.943-2.637 2.944-1.449 0-2.64-1.32-2.64-2.944s1.154-2.955 2.64-2.955"/></svg>
